X:1
T:6 Partitas
T:6 Partitas – BWV 825-830
T:Johann Sebastian Bach
T:Partita II
T:Creative Commons copyright waiver (CC0 1.0 Universal)
T:Creative Commons copyright waiver (CC0 1.0 Universal)
T:Creative Commons copyright waiver (CC0 1.0 Universal)
T:Creative Commons copyright waiver (CC0 1.0 Universal)
T:Creative Commons copyright waiver (CC0 1.0 Universal)
T:Creative Commons copyright waiver (CC0 1.0 Universal)
T:Creative Commons copyright waiver (CC0 1.0 Universal)
T:Creative Commons copyright waiver (CC0 1.0 Universal)
T:Creative Commons copyright waiver (CC0 1.0 Universal)
T:Creative Commons copyright waiver (CC0 1.0 Universal)
T:Creative Commons copyright waiver (CC0 1.0 Universal)
T:Creative Commons copyright waiver (CC0 1.0 Universal)
T:Creative Commons copyright waiver (CC0 1.0 Universal)
T:Creative Commons copyright waiver (CC0 1.0 Universal)
C:Johann Sebastian Bach
Z:Creative Commons copyright waiver (CC0 1.0 Universal)
%%score { ( 1 2 6 ) | ( 3 4 5 ) }
L:1/8
Q:1/4=66
M:4/4
K:Eb
V:1 treble nm="Harpsichord" snm="Hch."
V:2 treble 
V:6 treble 
V:3 bass 
V:4 bass 
V:5 bass 
V:1
"^Grave. Adagio." [ce]2 z/ e/d/>e/ f2 z/ f/f/>g/ | a>a a/g/4f/<g/d/4 [ce]2 z/ g/g/>a/ | %2
 [gb]2 z/ B/B/>c/ _d>d d/c/4B/<c/G/4 | [cf]2 z/ f/g/>a/ d2 z/ d/g/>e/ | %4
 c2- c/4e/4_d/4c/<d/f/4 =B/>c/B/>c/ =d2- | d4- d/>G/=A/>=B/ c/>[GB]/[Ac]/>[Bd]/ | %6
 [ce]>[ce] ^f2 g4 ||[Q:1/4=92]"^Andante." G/c/4d/4e- e/d/4c/4e/4d/4c/4=B/4 c/G/A/F/ G/c/G/F/ | %8
 E/c/4d/4e/4d/4c/ g/c/a/c/ =B/c/d/B/ G/ z/ z | %9
 g/4f/4e/4d/4c/B/- B/_dc/ a/4g/4f/4=e/4f- f/4g/4a/4g/4f/4_e/4=d/4e/4 | %10
 f/4e/4d/4c/4B/A/- A/cB/ g/4f/4e/4d/4e- e/4f/4g/4f/4e/4d/4c/4=B/4 | %11
 c/4_B/4A/4G/4F/e/- e/d/4c/4e/4d/4c/4=B/4 c/4d/4e/4f/4g/c/- c/B/4c/4d/4c/4B/4c/4 | %12
 a/4g/4f/4=e/4f/_d/- d/c/4d/4_e/4d/4c/4d/4 g/4f/4e/4=d/4e/c/- c/=B/4c/4d/4c/4B/4c/4 | %13
 f/4c/4=B/4=A/4B/d/ f/4_B/4_A/4G/4A/c/ f/4A/4G/4F/4G- G/4f/4g/4a/4g/f/ | %14
 g/=Bc/- c/_B/4A/4G/4F/4E/4D/4 E/4G/4F/4E/4F/4E/4D/4E/4 DC | %15
 z G- G/4A/4G/4F/4G/A/ B/d/e- e/4B/4e/4f/4g/e/ | %16
 _d/c/f- f/4c/4f/4g/4a/f/ e/c/=d- d/4f/4g/4a/4b/4a/4g/4a/4 | %17
 b/4a/4g/-g/4f/4=e/- e/4d/4c/-c/4g/4a/4b/4 a/4g/4f/-f/4_e/4_d/- d/4c/4B/-B/4f/4g/4a/4 | %18
 g/4f/4=e/4f/4b/4f/4e/4f/4 a/4f/4e/4f/4g/4f/4e/4f/4 f2- f/4_e/4d/4e/4f/4d/4e/4f/4 | %19
 B/4d/4f/4g/4a- a/4g/4f/4a/4g/4f/4e/4d/4 e/4B/4e/4f/4g- g/4f/4e/4g/4f/4e/4d/4c/4 | %20
 (b/4=a/4g/4^f/4)_e/d/- d/4g/4a/4b/4^c/d/- d/4f/4g/4a/4=c/4e/4d/4c/4 f/4d/4=e/4f/4g/4a/4b/4c'/4 | %21
 b/4=a/4g/4^f/4-f/g/- g/de/- e/=Bc/- c/4_B/4_A/4G/4A/c/ | %22
 ^F/4e/4d/4c/<b/(=a/4 gP^f/>)g/ g2- g/4=f/4g/4_a/4g/4f/4e/4d/4 | %23
 f/4e/4d/4c/4g- g/4e/4f/4g/4f/4e/4d/4c/4 e/4d/4c/4B/4g- g/4d/4e/4f/4e/4d/4c/4B/4 | %24
 d/4c/4B/4=A/4g- g/4c/4d/4e/4d/4c/4B/4A/4 c/4B/4A/4G/4g- g/4B/4c/4d/4c/4B/4A/4G/4 | %25
 _A2- A/4A/4G/4A/4B/4A/4G/4A/4 e2- e/4c/4=B/4c/4d/4c/4B/4c/4 | %26
 ^f/_ed/ g/dc/ =a/cB/- B/4d/4c/4B/4g/4B/4=A/4G/4 | %27
 !fermata!b-b/4=a/4g/4^f/4 g/4b/4a/4g/4f/4=e/4d/4c/4 B/4d/4c/4_e/4d/4g/4^f/4=e/4 d/4c/4B/4=A/4B/4d/4B/4G/4 | %28
 z/ =e/4^f/4Pf/4>e/4f/4g/4 B/4=A/4G/4^F/4G/B/- B/c/4B/4A/4B/4c/4A/4 ^F>G ||[M:3/4] GG/=A/ =Bcde | %30
 f/e/d/e/ fg_ad | f=BdG g/f/e/d/ | e c'2 b/a/ g/f/e/d/ | c2- c/d/=e/f/ g/a/b/g/ | %34
 =e_d'- d'/g/a/b/ a/g/f/e/ | f/g/a- a/g/f/e/ d/c/d/f/ | e/f/g- g/f/e/d/ c/=B/c/e/ | %37
 d/a/d/c/ d/e/f/g/ f/e/d/c/ | =B/g/f/e/ d/f/d/c/ B/d/B/=A/ | G/=A/=B/c/ d/c/B/c/ d/e/f/d/ | %40
 =B/c/d/e/ f/a/g/f/ e/d/c/B/ | c/d/e/c/ =AcFe | B/c/d/B/ GBEd | =A/B/c/A/ ^FADc | %44
 G/=A/B/G/ _E/G/D/G/ ^C/B/A/G/ | ^F/=E/D/E/ FG=AB | c/B/=A/B/ cdeA | c^F=AD d/c/B/A/ | %48
 B/=A/G/A/ Bcde | f/e/d/c/ B/f/c/B/ A/f/B/A/ | G/F/E/F/ G=A=Bc | d/c/=B/=A/ G/d/A/G/ F/d/G/F/ | %52
 E/c/G/F/ E/F/G/A/ G/c/G/F/ | E/c/G/F/ E/F/G/A/ G/c/G/F/ | =E/B/G/F/ E/F/G/A/ G/B/G/F/ | %55
 =E/B/G/F/ E/G/B/_d/ c/B/A/G/ | A/f/c/B/ A/B/c/_d/ c/f/c/B/ | A/f/c/B/ A/B/c/_d/ c/f/c/B/ | %58
 =A/e/c/B/ A/B/c/_d/ c/e/c/B/ | =A/e/c/B/ A/c/e/_g/ f/e/_d/c/ | _dBcded | cABc_dc | BABGAB | %63
 =E/D/C/D/ EFGA | B/A/G/A/ Bc_dG | B=EGC c/B/A/G/ | A/G/F- F/A/G/F/ E/D/C/B,/ | %67
 G/F/E- E/G/F/E/ D/C/=B,/C/ | F/E/D- D/F/E/D/ C/=B,/=A,/G,/ | E/F/G- GF/E/ D/=A/=B/c/ | %70
 d/c/=B/c/ d/g/f/e/ d/c/B/=A/ | G2- G/=A/=B/c/ d/e/f/d/ | =B_a- a/d/e/f/ e/d/c/B/ | %73
 c2- c/g/_d/c/ B/e/B/A/ | G/A/B/c/ _dB g2- | gc/B/ A/f/B/A/ G/_d/G/F/ | =E/F/G/A/ BG P=e3/2d/4e/4 | %77
 fF/G/ ABc=d | e/d/c/d/ efga | =B/g/d/c/ B/c/d/e/ d/g/d/c/ | =B/g/d/c/ B/c/d/e/ d/g/d/c/ | %81
 =B/f/d/c/ B/c/d/e/ d/f/d/c/ | =B/f/d/c/ B/d/f/a/ g/f/e/d/ | e/f/g/e/ c/g/f/e/ d/c/B/A/ | %84
 G/A/B- B/c/B/A/ G/F/=E/=D/ | C/G/C/B,/ C/D/=E/F/ E/G/C/B,/ | C/G/F/=E/ F/C/F/G/ A/B/c/d/ | %87
 e/d/c/d/ ef/g/ a_d | f=BdG g/f/e/d/ | e>c (c2 P=B>)c | !fermata!c6 |][M:2/2] a/g/f/ | %92
 g/d/e/=B/ c/f/e/d/ e/B/c/G/ A/d/c/B/ | c/G/A/E/ F/e/d/c/ P=B>=A GB | %94
 c/d/e F/e/d/c/ d/e/f G/f/e/d/ | e/f/g A/g/f/e/ f/g/a =B/a/g/f/ | e2- e>c d2- d>=B | %97
 c3- c/=B/ c2- c/c/_B/A/ | G/c/4d/4e/c/ GA B2- Bg- | g/c/4d/4e/c/ =A/f/c/4d/4e/ d2- dd | %100
 dPc z/ ^f/g/=a/ ePd z/ g/a/b/ | fP=e z/ =a/b/c'/ g^f z/ _e/d/c/ | %102
 d/=A/B/^F/ G/c/B/A/ B/F/G/D/ E/A/G/F/ | G/D/E/=B,/ C/F/E/D/ E/C/D/^F/ =A/E/D/C/ | %104
 (B,/D/G/B/-) B/^F/G/B,/ (C/E/G/B/-) B/F/G/C/ | (D/^F/G/B/-) B/F/G/D/ E/F/G/B/- B/F/G/B/ | %106
 =e/=A/B/^F/ G/B/A/G/ F/D/_E/B,/ C/E/D/C/ | %107
 B,d B=A/G/"^original has dotted crochet Gs.\nThese are too long to fit in the bar.\nI have faked it with triplet to fit\na dotted crochet in the space of a\nnormal crochet, and adjusted the \nplayed duration with the Piano Roll editor\nV\nV\n\n\n\nV\nV\nV\n\n" (3:2:1G3 x/ :: %108
 e/d/c/ | d/=A/=B/G/ _A/F/E/D/ (E/F/4G/4)C z/ a/g/f/ | g/d/=e/c/ _d/B/A/G/ (A/B/4c/4)F z/ C/F/G/ | %111
 A/=E/F/C/ _D/c/B/A/ B/F/G/=D/ =E/_d/c/B/ | c/G/A/=E/ F/_e/_d/c/ d/=A/B/G/ g2- | %113
 (g/c/)(f/=e/) (a/g/f/e/) (f/c/)(_e/_d/) (b/a/g/f/) | %114
 (=e/f/4g/4)c/B/ A/f/G/e/ f2- f/4g/4f/4e/4f/g/ | a/=e/f/c/ A/F/_e/c/ d/=A/B/d/ f/_a/g/f/ | %116
 g/d/e/B/ G/E/d/=B/ c/G/A/c/ e/g/f/e/ | f/c/d/A/ F/D/c/=A/ =B/^F/G/B/ d/=f/e/d/ | %118
 e/=B/c/_A/ (G/F/)e/d/ c/B/c/d/ Gd | e/g/c'/g/ e/d/c/=B/ c/e/g- g/_B/A/G/ | %120
 A/c/f/c/ A/G/F/=E/ F/=B/d- d/F/_E/D/ | C(eAG) D(fAG) | E(gAG) F(a/g/ a/g/^f/g/) | %123
 P^f3- f/=e/4f/4 g/d/=f/_e/ d/c/=B/=A/ | Gg ed/c/ c3 :|[M:3/2] c | c2- c/G/=A/=B/ cdec _a3 a | %127
 g8- g2 f2- | f/a/g/f/gd e4- eedc | P=B3 c d4- dceg | c'/b/a/g/af g4- gagf | %131
 Pe2- e/d/c/=B/ cdef gf/e<_bb/ | b2- b/a/g/f/ g4- ggfe | d4- d3 d- dB c2- | %134
 c/e/d/c/d=A Bdgb- bb=ag | P^f3 g =a4- a/g/=f/_e/fd | e/d/c/=B/c^f gGc/_B/=A- PA3 G | %137
 G6 G4"^add a rest\nto fill bar\n" z :: d | d2- d/g/f/e/ dc=Bc/d/ MG3 G | [df-]4 fagf edc=B | %141
 z/ e/f/g/ a2 g4 z dfg | fedc Me3 e G3 A | B4- B/_d/c/B/=ef g3 g- | g/g/f/=e/ f/g/a/f/ b3 a g3 c' | %145
 bagf (e2 Pd>)e f4- | f/B/c/d/ e2- e/d/e/f/ g2- g2 f2- | f/a/g/f/gd ef/g/ce- eedc | %148
 P=B3 c d4- d/c/_B/A/BG | A/G/F/=E/F=B cGf/_e/d- Pd3 c | c6 c4 x |] %151
[M:3/4] G/c/d/e/ F/e/d- d/F/G/A/ | G/d/e/f/ e2 x2 | =A/e/f/g/ =B/f/g/_a/ c/g/f/e/ | %154
 d/e/f/d/ P=B2 G2 | e/G/A/B/ A/G/F- F/c/d/e/ | d/F/G/A/ G/F/E- E/B/c/_d/ | c/G/F/E/ D/c/B/A/ f>A | %158
 A2 G4 :: B/e/g- g/c/B/A/ B/e/f/g/ | f/=a/b- b/g/f/e/ f/B/=A/B/ | e/d/c- c/g/f/e/ =a/b/c'- | %162
 c'/e/d/c/ d/f/d/=A/ B2- | B/_d/c/B/ g/B/A/G/ (A/c/f/g/) | (=a/_g/f/e/) c'/(e/_d/c/) (d/f/b/)_a/ | %165
 (_g/f/=e/f/) (_d/c/=B/c/) a/=g/f/e/ | f/(c/_d/=e/) f/(B/A/G/) F2- | F/e/d/c/ d/a/B/f/ g/A/G/F/ | %168
 E/d/c/=B/ c/g/A/e/ f/G/F/E/ | D/c/=B/=A/ B/f/G/d/ e/F/E/D/ | C/G/^F/=A/ c/A/=B/d/ G/=f/e/d/ | %171
 e/g/c/=B/ c2- c/e/A/G/ | A2- A/c/F/=E/ F2- | F/A/_d/c/ =e/f/=B/c/ ^F/G/_e/=B/ | %174
 c/=F/E/D/ [EGc]4 :|[M:3/8][Q:3/8=80] c'cPd | e2 f | gA z | fG z | eF z | dE z | z c/=B/c/d/ | %182
 =B/=A/G z | c'cd | e2 f | gA z | fG z | eF z | dE z | z/ c/D/F/c/=B/ | c3 | E/D/E/F/G/A/ | %192
 B/e/B/A/B- | B/f/B/A/B- | B/g/B/A/B- | B/_d/c/B/A/G/ | A/c/f/c/a- | a/f/a/g/f/=e/ | f3- | %199
 f/a/d/e/f/d/ | c/B/c/d/e/f/ | g/b/e/f/g/e/ | _d/c/=d/=e/f/g/ | a/c'/f/g/a/f/ | e/_d/c/=B/g- | %205
 g/c/f/e/d/c/ | =B/c/d/B/G | c'cd | e2 f | gA z | fG z | eF z | dE z | z c/=B/c/d/ | =B/=A/G z | %215
 c'cd | e2 f | gA z | fG z | eF z | dE z | z/ c/D/F/c/=B/ | c2 z | z/ e/c/G/A/E/ | F/A/d z | %225
 z/ d/B/^F/G/D/ | =E/G/c z | z/ c/A/=E/F/C/ | D/F/B z | z/ B/c/d/e/f/ | g/e/f/d/B/d/ | %231
 f/a/g/e/B/d/ | e/g/f/d/A/c/ | d/f/e/c/_G/=A/ | c/e/d/B/F/A/ | B/e/B/G/E/D/ | %236
 E/B/G/E/[I:staff +1]B,/A,/ | B,/[I:staff -1]G/E/[I:staff +1]B,/A,/[I:staff -1]D/ | %238
[I:staff +1] G,/[I:staff -1]E/[I:staff +1]B,/G,/E,/[I:staff -1] x/ | z/ G/=A/=B/c/d/ | %240
 e/d/c/d/e/f/ | g/G/A/c/f- | f/F/G/B/e- | e/E/F/=B/d- | d/D/E/G/c- | c/=B/c/e/a/c/ | =B/=A/G z | %247
 c'cd | e2 f | gA z | fG z | eF z | dE z | z/ c/D/F/c/=B/ | c3 | e3- | e2 d/e/4f/4 | d3- | %258
 de/f/g/e/ |{d} c3- | c(3d/c/B/(3c/B/=A/ | (3B/=A/G/(3c/B/A/(3B/A/G/ | ^F>=Ad/c/ | B/=A/B/d/c/e/ | %264
 d/B/G/g/=A/g/ | B/g/c/d/e/c/ | =A/f/B/c/d/B/ | G/e/=A/B/c/A/ | ^F/d/G/=A/B/G/ | D/c/B/=A/G/^F/ | %270
 G3- | G/c'/=b/=a/g/f/ | e2 f | g/B/A z | f/A/G z | e/G/F z | d/F/E z | z/ g/f/e/d/c/ | %278
 =B/c/d/B/G- | G/c/_B/A/G/F/ | E2 F | G/[I:staff +1]B,/A,[I:staff -1] z | %282
 F/[I:staff +1]A,/G,[I:staff -1] z | E/[I:staff +1]G,/F,[I:staff -1] z | %284
 D/[I:staff +1]F,/E,[I:staff -1] z | %285
"_remove\nillogical\nsecond\nrest\n" z[I:staff +1] [E,A,C][D,G,=B,] | %286
"^Suggest removing repeat.\n c.f. IMSLP62200, Czerny\nand IMSLP281777\nwhich do not have repeat\n" [E,G,C]3 :| %287
[M:2/4][I:staff -1] z G c2- | cd/c/ =B/=A/G/F/ | EgDf | e/d/c/d/ =e/^f/g/=a/ | b/g/^f/g/ d/g/f/g/ | %292
 c'/g/^f/g/ =a/g/f/g/ | d g2 ^f | g z z2 | z/ c/^F/G/ =A/B/c- | c/B/=A/B/ c/d/=e/^f/ | %297
 g^f/g/- g2- | g=e/g/- g2- | g=e/f/- f2- | fd/f/- f2- | f/e/d/f/ e/d/c/=B/ | c/=B/c/d/ e/f/g- | %303
 g/f/e/g/ f/e/d/c/ | =B/=A/B/c/ d/e/f- | f/a/g/f/ e/d/c/B/ | A/c/f/e/ d/c/=B/d/ | %307
 g/f/e/g/ f/e/d/f/ | e2 G/c/=B/c/ | e/c/=a/e/ c'/e/d/c/ | d/B/=A/B/ F/B/A/B/ | d/B/g/d/ b/d/c/B/ | %312
 c/=A/G/A/ ^F/A/G/A/ | c/=A/^f/c/ =a/c/B/A/ | Bd g2- | g=a/g/ ^f/=e/d/c/ | Bd'=Ac' | Gb/=a/ gb | %318
 =egBe | Fa/g/ fa | dfAd | E2 z c | A2 z2 | z G c2- | cd/c/ =B/=A/G/F/ | EgDf- | %326
 f/e/d/f/ e/d/c/B/ | A/G/A/B/ c/d/e- | e/d/c/e/ d/c/B/A/ | G/F/G/A/ B/c/_d- | d/c/B/_d/ c/B/A/G/ | %331
 A4- | AG G2- | GA/G/ F/E/D/C/ | G4 :: z d G2- | GF/G/ =A/=B/c/d/ | eCfD | g/a/g/f/ e/d/c/B/ | %339
 AfG=e | f/c'/=e/f/ z/ c'/e/f/- | f z z2 | z f/g/ a/b/c'/d/ | e z z2 | z e/f/ g/a/b/g/ | a z z2 | %346
 z/ g/f/e/ d/c/=B/=A/ | =B/c/d/e/ f2- | f/e/=B/c/ z/ e/B/c/ | z/ d/=B/c/ z/ c/B/c/- | cgdf- | %351
 fe/f/ g2- | gfce- | ed/e/ f2- | fe/d/ c/B/=A/G/ | c4- | c3 c | B2 =A2 | z/ =a/^f/g/ z/ a/f/g/ | %359
 z g e2- | e d2 c- | cedc | Bg=A^f | g2 z =f | =B2 z2 | z g c2- | cB/c/ d/=e/f/g/ | %367
 a<"^add dot like\nfollowing bars\nV\n"c' a/c'/b/c'/ | a<c' a/b/a/b/ | g<b g/b/a/b/ | %370
 g<b g/a/g/a/ | f<a f/a/g/a/ | f<a f/g/f/g/ | e/g/d/g/ c/f/B/e/ | A/c/f/e/ f2 | z c g2- | %376
 ga/g/ f/e/d/c/ | =B2 z e | c2 z2 | z G f2- | fdgf | e2 d2 | [Gc]4 :| %383
V:2
 G2 z/ c/=B/>c/ d2 z/ d/d/>e/ | f>f f z G2 z/ e/e/>f/ | c2 z/ G/G/>A/ B>B B z | %3
 A2 z2 z/ F/F/>G/ G2 | z/ E/E/>F/ F2 G/>=A/G/>A/ =B2- | B>D F>A G/>F/E/>D/ E/>D/E/>F/ | %6
 G2 [=Ac] z [=Bd]4 || x8 | x8 | x8 | x8 | x8 | x8 | x8 | x8 | x8 | x8 | x8 | x8 | x8 | x8 | x8 | %22
 x8 | x8 | x8 | x8 | x8 | x8 | x3 G- G2 D2 ||[M:3/4] D x5 | x6 | x6 | x6 | x6 | x6 | x6 | x6 | x6 | %38
 x6 | x6 | x6 | x6 | x6 | x6 | x6 | x6 | x6 | x6 | x6 | x6 | x6 | x6 | x6 | x6 | x6 | x6 | x6 | %57
 x6 | x6 | x6 | x6 | x6 | x6 | x6 | x6 | x6 | x6 | x6 | x6 | x6 | x6 | x6 | x6 | x6 | x6 | x6 | %76
 x6 | x6 | x6 | x6 | x6 | x6 | x6 | x6 | x6 | x6 | x6 | x6 | x6 | z z/ [E=A]/ [DG]4 | [EG]6 |] %91
[M:2/2] x3/2 | x8 | x8 | x8 | x8 | z/ =B/c/G/ A/E/F z/ G/A/F/ G/D/E- | %97
 E/F/4G/4A/F/ D<F- F/F/E/D/ EF | E2 z2 z/ F/G/D/ E z | x4 z/ =A/B- B^F | G2 z2 =A2 z2 | %101
 B2 z2 c2 z2 | x8 | x8 | x8 | x8 | x8 | z [DG] [DG][C^F] z/ D<=B, :: x3/2 | x8 | x8 | x8 | x8 | %113
 x8 | x8 | x8 | x8 | x8 | x8 | x8 | x8 | x8 | x8 | x8 | x !arpeggio![Gce] [Gc][F=B] [EG]3 :| %125
[M:3/2] x | [EG]2 x6 z f3- | ffed e2 c2- c c2 d | =B4- BB c2 z2 =A2 | x12 | G x3 z dec =B4 | %131
 c4 x8 | !arpeggio![Beg]2 z2 z/ f/e/d/eB c4- | c/c/B/=A/ BF DF B2 G3 A | ^F4 G2 z2 ^c4 | %135
 d8- d2 z2 | x8 ^F4 | z2 z/ =F/E/D/EC [=B,D]4 x :: x | G3 x9 | G4 x8 | c3 f- ff/e/d/e/f =B4 | %142
 c2 x2 x2 x2 z C _D2- | D/_D/C/B,/=EF G4 z B =e2 | c4 z =e f2- ff e2 | f2 z2 x4 z/ B/A/G/AF | %146
 G6 z/ f/e/d/ e c2 d | =B4 c2 =A2 ^F4 | D4 z GDF E4- | EA, D2 z C3 =B4 | z2 z/ _B/A/G/AF [EG]4 x |] %151
[M:3/4] G2 F2 x2 | G2 e/=B/c- c/G/A/_B/ | =A2 =B2 x2 | x6 | x6 | x6 | x11/2 [B,DF]/ | %158
 [B,DF]2 [B,E]4 :: x6 | x6 | x6 | x6 | x6 | x6 | x6 | x6 | x6 | x6 | x6 | x6 | x6 | x6 | x6 | x6 :| %175
[M:3/8] x3 | x3 | x3 | x3 | x3 | x3 | x3 | x3 | x3 | x3 | x3 | x3 | x3 | x3 | x3 | x3 | x3 | x3 | %193
 x3 | x3 | x3 | x3 | x3 | x3 | x3 | x3 | x3 | x3 | x3 | x3 | x3 | x3 | x3 | x3 | x3 | x3 | x3 | %212
 x3 | x3 | x3 | x3 | x3 | x3 | x3 | x3 | x3 | x3 | x3 | x3 | x3 | x3 | x3 | x3 | x3 | x3 | x3 | %231
 x3 | x3 | x3 | x3 | x3 | x3 | x3 | x3 | x3 | x3 | x3 | x3 | x3 | x3 | x3 | x3 | x3 | x3 | x3 | %250
 x3 | x3 | x3 | x3 | x3 | z z G | c3- | c2 F | B3- | B=A/G/^F/G/ | =A2 x | x3 | x3 | x3 | x3 | x3 | %266
 x3 | x3 | x3 | x3 | x3 | x3 | x3 | x3 | x3 | x3 | x3 | x3 | x3 | x3 | x3 | x3 | x3 | x3 | x3 | %285
 x3 | x3 :|[M:2/4] x4 | x4 | x4 | x4 | z D G2- | G=A/G/ ^F/=E/D/C/ | %293
 B,d[I:staff +1]=A,[I:staff -1]c- | c/B/=A/c/ B/A/G/F/ | EC z ^F | G z z =A | B<d B/_d/c/d/ | %298
 B<_d B/c/B/c/ | A<c A/c/B/c/ | A<B A/B/A/B/ | G z z2 | z E/F/ G/=A/=B/c/ | d z z2 | %304
 z D/E/ F/G/=A/_B/ | c z z2 | x4 | z c2 =B | z/ c/=B/c/ x2 | x4 | x4 | x4 | x4 | x4 | x4 | x4 | %316
 x4 | x4 | x4 | x4 | x4 | x4 | x4 | x4 | x4 | x4 | x4 | x4 | x4 | x4 | x4 | x4 | x4 | x4 | x4 :: %335
 x4 | x4 | x4 | x4 | x4 | x4 | c/_d/c/B/ A/G/F/E/ | D/C/D/E/ F/G/A- | A/c/B/A/ G/F/E/D/ | %344
 C/=B,/C/D/ E/F/G- | G/B/A/G/ F/E/D/C/ | =B, z z2 | z2 z d | G2 F2 | E2 D2 | Ee=Bd- | d3 c/B/ | %352
 =A3 c- | c3 B/A/ | G2 z2 | z B=AG | ^F=A D2- | DC/D/ =E/^F/G/=A/ | %358
 B[I:staff +1]G,[I:staff -1]c[I:staff +1]=A, |[I:staff -1] d3 c | ^F B2 =A- | A^FG=A | %362
 D z z/ e/d/c/ | =Bd G2- | GF/G/ =A/=B/c/d/ | e/=B,/C/D/ E/F/G/A/ | B/A/G/A/ B/c/d/=e/ | %367
 f=e/f/- f2- | f=e/f/- f2- | fd/e/- e2- | ed/e/- e2- | ec/d/- d2- | dc/d/- d2 | cBAG | %374
 F2 z/ c/=B/d/ | G2 z e | c2 z2 | z D G2- | GA/G/ F/E/D/C/ | =B,2 z d | G=Bcd- | G2 F2 | E4 :| %383
V:3
 [E,G,C]2"_I see no rationale\nfor 3 rests here\n" z2 [D,F,A,=B,]2 z2 | z2 [D,F,=B,]2 [E,G,C]2 z2 | %2
 [=E,G,C]2 z2 z2 [G,C]2 | [F,A,C]2 z2 z/ [D,A,]/[D,A,]/>[D,G,]/ [D,G,]2 | %4
 z/ [C,G,]/[C,G,]/>[C,F,]/ !trill(!TF,2- [D,F,]2 z/ F,/F,/>G,/ | %5
 A,>A,- A,/G,/4F,/4G,/D,/ [C,E,]2 z2 | z2 [C,E,=A,]2 [D,G,]4 || C,CF,G, E,C,E,G, | %8
 CA,E,F, G,G,, z/[I:staff -1] F/E/D/ | EG=EC FAFC | DFDB, EGEC |[I:staff +1] A,CFA, G,CEG, | %12
 F,A,G,F, E,G,F,E, | D,F,A,C, =B,,D,G,D, | E,A,,F,,G,, C,,2- C,,/D,,/4E,,/4F,,/4G,,/4=A,,/4=B,,/4 | %15
 C,CB,A, G,B,G,E, | A,CA,F, B,A,G,F, | =E,G,CE, F,A,F,_D, | %18
 B,,G,,C,C,, F,,/G,,/4A,,/4B,,/4C,/4D,/4=E,/4 F,_E, | D,F,D,B,, G,B,E,G, | =A,,^F,G,G,, D,=A,CD, | %21
 G,=A,B,=B, CDEC | =A,G,DD, G,A,=B,G, | CEC=A, B,DB,G, | =A,CA,^F, G,B,G,E, | %25
 C,/D,/4E,/4F,/4G,/4A,/4B,/4 C/C,/C- C/4C,/4D,/4E,/4F,/4G,/4A,/4B,/4 C/C,/C- | %26
 CC,B,,B, ^F,D,G,_E, | !fermata![=E,G,]2 z2 [G,B,D]4 | ^C2- C>C D=C/B,/ =A,/B,/C || %29
[M:3/4] [G,=B,] z z2 z2 | z6 | z6 |[K:treble] z C/D/ EFGA | B/A/G/A/ Bc_dG | B=EGC c/B/A/G/ | %35
 AFGABA | GEFGAG | FEFDEF | GG,/=A,/ =B,CDE | F/E/D/E/ FG_AD | F=B,DG, G/F/E/D/ | %41
[K:bass] E/D/C- C/E/D/C/ B,/=A,/G,/F,/ | D/C/B,- B,/D/C/B,/ =A,/G,/^F,/G,/ | %43
 C/B,/=A,- A,/C/B,/A,/ G,/^F,/=E,/D,/ | B,DG,B,=E,^C | DD,- D,C,/B,,/ =A,,/G,,/^F,,/=E,,/ | %46
 D,,2- D,,/=E,,/^F,,/G,,/ =A,,/B,,/C,/A,,/ | ^F,,E,- E,/=A,,/B,,/C,/ B,,/A,,/G,,/F,,/ | %48
 G,,2 z/ G,/_A,/B,/ A,/G,/F,/E,/ | D,F,D,B,,C,D, | E,E,, z/ E,/F,/G,/ F,/E,/D,/C,/ | %51
 =B,,D,B,,G,,=A,,B,, | C,C,, z/[I:staff -1] D/E/F/ ED |[I:staff +1] CC, z/ A,/B,/C/ B,A, | %54
 G,C, z/[I:staff -1] D/=E/F/ ED |[I:staff +1] CC, z/ D,/=E,/F,/ E,C, | %56
 F,F,,[K:treble] z/ G/A/B/ AG | FF, z/ _D/E/F/ ED | CF, z/ G/=A/B/ AG | %59
 FF,[K:bass] z/ G,/=A,/B,/ A,F, | B,/C/_D- D/C/B,/A,/ G,/F,/G,/B,/ | %61
 A,/B,/C C/B,/A,/G,/ F,/=E,/F,/A,/ | G,/_D/G,/F,/ G,/A,/B,/C/ B,/A,/G,/F,/ | %63
 CB,/A,/ G,/C/B,/A,/ G,/F,/=E,/D,/ | C,2- C,/D,/=E,/F,/ G,/A,/B,/G,/ | %65
 =E,_D- D/G,/A,/B,/ A,/G,/F,/E,/ | F,/G,/A,/F,/ D,F,B,,A, | E,/F,/G,/E,/ C,E,A,,G, | %68
 D,/E,/F,/D,/ =B,,D,G,,F, | C,/D,/E,/C,/ _A,,/C,/G,,/C,/ ^F,,/E,/D,/C,/ | %70
 =B,,/=A,,/G,,/A,,/ B,,C,D,E, | F,/E,/D,/E,/ F,G,_A,D, | F,=B,,D,G,, G,/F,/E,/D,/ | %73
 E,/D,/C,/D,/ E,F,G,A, | B,/A,/G,/F,/ E,/B,/F,/E,/ D,/B,/E,/D,/ | C,/B,,/A,,/B,,/ C,D, =E,F, | %76
 G,/F,/=E,/D,/ C,/G,/_D,/C,/ B,,/G,/C,/B,,/ | A,,/F,/A,,/G,,/ F,,/C,/_D,/G,,/ =A,,/E,/F,/=B,,/ | %78
 C,/F,/E,/D,/ C,/G,/A,/D,/ E,/=B,/C/F,/ | G,G,,[K:treble] z/ =A/=B/c/ BA | GG, z/ E/F/G/ FE | %81
 DG,[K:bass] z/ =A,/=B,/C/ B,A, | G,G,, z G/F/ E/D/C/=B,/ | CC,/D,/ E,F,G,A, | %84
 B,/A,/G,/A,/ B,C_DG, | B,=E,G,C, C/B,/A,/G,/ | A,2- A,/B,/A,/G,/ F,/G,/A,/F,/ | %87
 G,/F,/E,/D,/ C,/B,,/A,,/G,,/ F,,/F,/=E,/F,/ | A,/F,/=E,/F,/ =B,,/F,/_E,/D,/ E,/G,/C,/E,/ | %89
 ^F,,>^F, G,2 G,,2 | !fermata!C,,6 |][M:2/2] z/ z | C,C,,[K:treble] z/ A/G/F/ G/D/E/=B,/ C/F/E/D/ | %93
 E/=B,/C/G,/ A,F,[K:bass] G,G,,- G,,/F,/E,/D,/ | %94
 E,/=B,,/C,/G,,/ A,,/G,/F,/E,/ F,/C,/D,/=A,,/ B,,/_A,/G,/F,/ | %95
 G,/D,/E,/=B,,/ C,/B,/A,/G,/ A,/E,/F,/C,/D,C | CEF,A, =B,,D,F,,G,, | A,,F,,G,,G, C,G, CD | %98
 C3/2G,/4F,/4 E,/4F,/4G,/C,/4D,/4E,/ G,,3/2B,,/4A,,/4 G,,/4A,,/4B,,/E,,/4F,,/4G,,/ | %99
 =A,,,C,,F,,=A,, B,,3/2[I:staff -1]F/4E/4 D/4E/4F/[I:staff +1]B,/4C/4D/ | %100
 E,/G,/=A,/B,/ C/D/E/C/ ^F,/A,/B,/C/ D/=E/^F/D/ | G,/B,/C/D/ =E/^F/G/_E/ =A,/C/D/E/ D/C/B,/A,/ | %102
 B,/C/D/=A,/ B,/E/D/C/ D/A,/B,/^F,/ G,/C/B,/A,/ | %103
 B,/^F,/G,/D,/ E,/4=F,/4G,/C,/4D,/4E,/ ^F,,2 z D,, | G,,(B,E,D,) =A,,(CE,D,) | %105
 B,,(DE,D,) C,(EE,D,) | [^C,,^C,]2 z C, D,=A,,^F,,D,, | G,,/=A,,/B,,/C,/ D,D,, z z/ D,/ G,/ :: %108
 z z/ | G,,G, z/ A,/G,/F,/ G,/D,/E,/=B,,/ C,/F,,/E,,/D,,/ | %110
 C,,C, z/ _D/C/B,/ C/G,/A,/=E,/ F,/B,,/A,,/G,,/ | %111
 F,,/G,,/A,, B,,,/A,,/G,,/F,,/ G,,/A,,/B,, C,,/B,,/A,,/G,,/ | %112
 A,,/B,,/C, _D,,/C,/B,,/A,,/ B,,/C,/_D, =E,,/D,/C,/B,,/ | A,,C,F,,A,, _D,F,G,,B,,- | %114
 B,,A,,/B,,/ C,C,, F,,/C,/F,/G,/ A,/F,/A,/C/ | FA,CF, B,FDB, | EG,B,E, A,ECA, | DF,A,D, G,D=B,G, | %118
 CE,A,F, G,G,,- G,,/A,/G,/F,/ | G,/D,/E,/=B,,/ C,/F,/E,/D,/ E,/B,,/C,/G,,/ A,,/_D,/C,/_B,,/ | %120
 C,/G,,/A,,/=E,,/ F,,/B,,/A,,/G,,/ A,,/F,,/G,,/=B,,/ D,/A,,/G,,/F,,/ | %121
 (E,,/G,,/C,/E,/-) E,/=B,,/C,/E,,/ (F,,/A,,/C,/E,/-) E,/B,,/C,/F,,/ | %122
 (G,,/=B,,/C,/E,/-) E,/B,,/C,/G,,/ _A,,/=B,,/C,/E,/- E,/B,,/C,/E,/ | %123
 =A,/D,/E,/=B,,/ C,/E,/D,/C,/ B,,/G,,/_A,,/E,,/ F,,/A,,/G,,/F,,/ | E,,/G,,/C,/E,/ G,G,, [C,,C,]3 :| %125
[M:3/2] z | C4 E,2 G,2 C2 =B,2 | C2- C/G,/=A,/=B,/ CDEC[I:staff -1] A3 A | G6- G_A ^F4 | %129
[I:staff +1] x4 z[I:staff -1] GDF E2 G2- | G[I:staff +1] C2 =B, z G, C2 G,4- | %131
 G,2 E,2 G,2 C2 PB,2 A,2 | z2 B,2 E6 _A,2 | B,2- B,/F,,/G,,/=A,,/ B,,C,D,B,, E,3 E, | %134
 z2 =A,2 D2 B,2 G,2 =E,2 | x4 z D=A,C B,4- | B, =A,3 x4 D,4 | z2 z2 ^F,2 [D,G,]4 z :: z | %139
 x3 =A, =B,CD[I:staff -1]E FDEF |[I:staff +1] P=B,2 x2 x4 x4 | A,2 D,2 E,2 F,2 G,4 | %142
 G,2 x2 x2 x2 B,3 A, | G,3 F, =E,F,G,A, B,_DCB, | A,CA,F, _D,2 B,,2 C,2 C,,2 | %145
 F,,4- F,,/B,/A,/G,/F,E, D,2 B,,2 | E,2- E,/G,,/=A,,/=B,,/ C,D,E,C, _A,3 A, | z2 D2 G2 E2 C2 =A,2 | %148
 x2 x2 z2 G,4 C2- | C2 A,2 G,2 A,2 G,4 | z2 z2 =B,,2 [G,,C,]4 x |][M:3/4] C,C- C/B,/A,/G,/ A,C, | %152
 =B,,G,- G,/F,/E,/D,/ E,G,, | C,,C, D,D,, E,,E, | F,/G,/A,/F,/ G,/=A,/=B,/C/ D/F/E/D/ | %155
 CC, F,/G,/A,/B,/ CF, | B,B,, E,/F,/G,/A,/ B,E, | A,A,, B,,/A,/G,/F,/ E,/D,/C,/B,,/ | %158
 E,/G,,/A,,/B,,/ E,,G,,/B,,/ E,2 :: E,/G,/B,/D/ E/G/E, E,/G,/F,/E,/ | %160
 D,/F,/G,/=A,/ B,/D/D, D,/F,/E,/D,/ | C,/G,/=A,/B,/ A,/B,/C C/E,/D,/C,/ | %162
 B,,/F,/G,/=A,/ B,/D/B,, B,,/_A,/G,/F,/ | =E,G, CE, F,C | E_G =A,F B,_D | B,=G, _A,F, CC, | %166
 F,F,, A,,C, F,E, | D,F, B,,D, E,,D, | C,E, A,,C, D,,C, | =B,,D, G,,B,, C,,B,, | %170
 =A,,D,, D,G,, G,=B, | CD E/G/C/_B,/ A,B, | C/E/A,/G,/ F,G, A,/C/F,/_E,/ | _D,F, A,,^F, G,G,, | %174
 C,2- C,/E,,/F,,/G,,/ C,,2 :|[M:3/8] z3 |[K:treble] cCD | E z F | D z E | C z D | =B, z[K:bass] C | %181
 A,F,D, | G, z/ F/E/D/ | C z z |[K:treble] cCD | E z F | D z E | C z D | =B, z[K:bass] C | A,F,G, | %190
 C,G,,E,, | C,,2 z | G,F,E, | D,C,B,, | E,G,F, | =E,G,C, | F,A,_D, | B,C,C | B,/A,/B,/A,/G,/F,/ | %199
 B,F,A, | D,F,B,, | E,,G,B, | =E,G,C, | F,,A,C | F,A,D, | E,A,,F, | G,,G,[K:treble] z/ F/ | %207
 E/F/G/=A/=B/G/ | cCD | E z F | D z E | C z D | =B, z[K:bass] C | A,F,D, | G, z/ F/E/D/ | C z z | %216
[K:treble] cCD | E z F | D z E | C z D | =B, z[K:bass] C | A,F,G, | C,/E,/G,/C,/E,/G,/ | CC,C- | %224
 CC,/C/B,/A,/ | B,B,,B,- | B,B,,/B,/A,/G,/ | A,A,,A,- | A,A,,/A,/G,/F,/ | G,F,E, | B,B,,B,- | %231
 B,E,F, | G,B, z | A,G,E, | B,,B,A, | G,G,,G,- | G,A,,G,- | G,B,,F, | E,2 z/ D,/ | %239
 E,/F,/E,/D,/C,/=B,,/ | C,/G,/=A,/=B,/C/D/ | EF, z/ E/ | DE, z/ D/ | CD, z/ C/ | =B,C, z/ E,/ | %245
 A,G,F, | G,/F,/G,/_A,/F,/G,/ | E,/D,/E,/F,/D,/E,/ | C,CD | E z F | D z E | C z D | =B, z C | %253
 A,F,G, | C,G,,/F,,/E,,/D,,/ | C,,CB, | =A,G,F, | B,,B,=A, | G,F,E, | =A,,=A,G, | ^F,=E,D, | %261
 G,E,C, | D,/E,/D,/C,/B,,/=A,,/ | G,,G,=A, | B,2 C | DE, z | CD, z | B,C, z | =A,B,, z | z C,D, | %270
 G,,/_A,/G,/F,/E,/D,/ | E,F,G, | C,/[K:treble]c/=B/=A/G/F/ | E>GF/E/ | D>FE/D/ | C>ED/C/ | %276
 =B,>DC/_B,/ | A,AF | G/A/G/F/E/D/ |[K:bass] C/E/D/C/B,/A,/ | G,/C/B,/A,/G,/F,/ | E,>G,F,/E,/ | %282
 D,>F,E,/D,/ | C,>E,D,/C,/ | =B,,>D,C,/_B,,/ | A,,/C,/F,,G,, | C,,3 :|[M:2/4] E,2 z E, | %288
 F,2 z =B, | C3 =B, | C z z2 | G,2 z G, | =A,2 z2 | z B,,C,D, | G,,D, G,2- | %295
 G,=A,/G,/ ^F,/=E,/D,/C,/ | B,,D=A,,C | G,,B,F,,_A, | =E,,G,C,,=E, | F,,A,_E,,G, | D,,F,B,,,D, | %301
 E,,E,F,G, | A, z z2 | z D,E,F, | G, z z2 | z G, C2- | CD/C/ =B,/=A,/G,/F,/ | E,GD,F | C,E/D/ CE | %309
 =A,CF,A, | B,,D/C/ B,D | G,B,E,G, | =A,,C/B,/ =A,C | ^F,=A,D,F, | z/ G,/^F,/G,/ D,/G,/F,/G,/ | %315
 C,/G,/^F,/G,/ =A,/G,/F,/=E,/ | D, G,2 ^F, | z/ G,/^F,/G,/ D,/G,/F,/G,/ | %318
 B,/G,/=E/B,/[I:staff -1] G/[I:staff +1]B,/_A,/G,/ | A,/F,/=E,/F,/ C,/F,/E,/F,/ | %320
 A,/F,/D/A,/[I:staff -1] F/[I:staff +1]A,/G,/F,/ | G,B,[I:staff -1] E2- | %322
 EF/E/ D/C/[I:staff +1]B,/A,/ | G,2 z[I:staff -1] C | F2[I:staff +1] z2 | z E,F,G,- | G,G, C2- | %327
 CC/D/[I:staff -1] E/F/G/A/ | B[I:staff +1]F, B,2- | B,B,/C/[I:staff -1] _D/E/F/G/ | %330
 A[I:staff +1]G,F,=E, | F,/[I:staff -1]F/=E/G/ F/_E/D/C/ | =B,2[I:staff +1] z[I:staff -1] E | C4 | %334
 =B,4 ::[I:staff +1] =B,2 z D | G, C2 =B, | z/ G,/A,/G,/ z/ F,/G,/F,/ | E,G C2- | %339
 CB,/C/ D/[I:staff -1]=E/F/G/ | A[I:staff +1]F,[I:staff -1] B[I:staff +1]G, | %341
[I:staff -1] A[I:staff +1]F,G,A, | B, z z2 | z E,F,G, | A, z z2 | z D,E,F, | G,D, G,,2- | %347
 G,,F,,/G,,/ =A,,/=B,,/C,/D,/ | E,C,,F,D,, | G,E,,A,F,, | G,/G,,/G,/A,/ G,/F,/E,/D,/ | %351
 C,/G,/C/D/ C/_B,/=A,/G,/ | F,/F,,/F,/G,/ F,/E,/D,/C,/ | B,,/F,/B,/C/ B,/_A,/G,/F,/ | %354
 E,/E,,/E,/F,/ E,/D,/C,/B,,/ | =A,,/G,,/A,,/B,,/ C,/D,/E,/C,/ | D,/C,/D,/=E,/ ^F,/G,/=A,/F,/ | %357
 G,_E,C,D, | G,, z E, z | B,,/G,/^F,/G,/ C,/=A,/F,/G,/ | D,/B,/^F,/G,/ E,/C/F,/G,/ | %361
 ^F,,/E,/D,/C,/ B,,/=A,,/G,,/F,,/ | G,,/F,,/E,,/D,,/ C,,D,, | G,,/^F,,/G,,/=A,,/ =B,,/C,/D,/E,/ | %364
 F,/E,/D,/E,/ F,/G,/=A,/=B,/ | C z z C | =E, z z C | F,AE,G | D,FB,,D | E,GD,F | C,EA,,C | D,FC,E | %372
 =B,,DG,,=B, | C,G, C2- | CD/C/ =B,/=A,/G,/F,/ | E,/D,/C,/D,/ E,/F,/G,/E,/ | A,/G,/F,/G,/ A,2- | %377
 A,/A,/G,/F,/ E,/D,/C,/B,,/ | A,,/G,/F,/E,/ D,/C,/=B,,/=A,,/ | G,,/E,/D,/C,/ =B,,/=A,,/G,,/F,,/ | %380
 E,,/A,,/G,,/F,,/ E,,/D,,/E,,/F,,/ | G,,/C,/E,/^F,/ G,G,, | [C,,C,]4 :| %383
V:4
 A,,2 z2 C,2 z2 | z2 C,2 C,2 z2 | C,2 z2 z2 C,2 | C,2 z2 z/ C,/C,/>B,,/ B,,2 | %4
 z/ B,,/B,,/>A,,/ !trill)![A,,C,]2 G,,2 z/ D,/D,/>D,/ | F,>F, G,,2 G,,2 z2 | z2 G,,2 G,,4 || x8 | %8
 x8 | x8 | x8 | x8 | x8 | x8 | x8 | x8 | x8 | x8 | x8 | x8 | x8 | x8 | x8 | x8 | x8 | x8 | x8 | %27
 ^C,2 x2 D,4- | D,4 z2 =A,2 ||[M:3/4] G,, z z2 z2 | x6 | x6 |[K:treble] x6 | x6 | x6 | x6 | x6 | %37
 x6 | x6 | x6 | x6 |[K:bass] x6 | x6 | x6 | x6 | x6 | x6 | x6 | x6 | x6 | x6 | x6 | x6 | x6 | x6 | %55
 x6 | x2[K:treble] x4 | x6 | x6 | x2[K:bass] x4 | x6 | x6 | x6 | x6 | x6 | x6 | x6 | x6 | x6 | x6 | %70
 x6 | x6 | x6 | x6 | x6 | x6 | x6 | x6 | x6 | x2[K:treble] x4 | x6 | x2[K:bass] x4 | x6 | x6 | x6 | %85
 x6 | x6 | x6 | x6 | x6 | x6 |][M:2/2] x3/2 | x2[K:treble] x6 | x4[K:bass] x4 | x8 | x8 | x8 | %97
 x6 C2 | x8 | x8 | x8 | x8 | x8 | x8 | x8 | x8 | x8 | x4 (3:2:1G,,3 x/ :: x3/2 | x8 | x8 | x8 | %112
 x8 | x8 | x8 | x8 | x8 | x8 | x8 | x8 | x8 | x8 | x8 | x8 | x7 :|[M:3/2] x | z2 C,6- C,4 | %127
 C,2 z2 x8 | x12 | z/[I:staff -1] G/F/E/FD[I:staff +1] =B,4 C2 _B,2 | A,2 D,2 E,3 F, G,2 G,,2 | %131
 C,6 x6 | G,6 G,2 =A,2 F,2 | x12 | D,8- D,4 | B,,/D/C/B,/C=A, ^F,4 z2 G,2 | %136
 C,2 E,D, C,B,,E,C, D,2 D,,2 | G,,6- G,,4 x :: x | z2 G,6- G,4 | G,2- G,/G/F/F/ DC=B,C/D/ MG,3 G, | %141
 x8 G,2 G,,2 | C,2- C,/G,,/=A,,/=B,,/ C,D,E,C, x4 | x12 | x12 | x12 | x12 | G,4- G,4- G,4- | %148
 G,/G,/F,/E,/F,D, =B,,4 C,4 | F,3 D, E,2 A,F, G,2 G,,2 | C,,6- C,,4 x |][M:3/4] x6 | x6 | x6 | x6 | %155
 x6 | x6 | x6 | x6 :: x6 | x6 | x6 | x6 | x6 | x6 | x6 | x6 | x6 | x6 | x6 | x6 | x6 | x6 | x6 | %174
 x6 :|[M:3/8] x3 |[K:treble] x3 | x3 | x3 | x3 | x2[K:bass] x | x3 | x3 | x3 |[K:treble] x3 | x3 | %186
 x3 | x3 | x2[K:bass] x | x3 | x3 | x3 | x3 | x3 | x3 | x3 | x3 | x3 | x3 | x3 | x3 | x3 | x3 | %203
 x3 | x3 | x3 | x2[K:treble] x | x3 | x3 | x3 | x3 | x3 | x2[K:bass] x | x3 | x3 | x3 | %216
[K:treble] x3 | x3 | x3 | x3 | x2[K:bass] x | x3 | x3 | x3 | x3 | x3 | x3 | x3 | x3 | x3 | x3 | %231
 x3 | x3 | x3 | x3 | x3 | x3 | x3 | x3 | x3 | x3 | x3 | x3 | x3 | x3 | x3 | x3 | x3 | x3 | x3 | %250
 x3 | x3 | x3 | x3 | x3 | x3 | x3 | x3 | x3 | x3 | x3 | x3 | x3 | x3 | x3 | x3 | x3 | x3 | x3 | %269
 x3 | x3 | x3 | x/[K:treble] x5/2 | x3 | x3 | x3 | x3 | x3 | x3 |[K:bass] x3 | x3 | x3 | x3 | x3 | %284
 x3 | x3 | x3 :|[M:2/4] C,2 z C, | D,2 z2 | z E, F,G, | C,CB,=A, | x4 | x4 | x4 | x4 | x4 | x4 | %297
 x4 | x4 | x4 | x4 | x4 | x4 | x4 | x4 | x4 | x4 | x4 | x4 | x4 | x4 | x4 | x4 | x4 | G,, z B,, z | %315
 =A,, z C, z | z B,,C,D, | G,, z B,, z | z2 C, z | F, z A,, z | z2 B,, z | %321
 z/ F,/E,/D,/ C,/B,,/A,,/G,,/ | F,,/E,/D,/C,/ B,,/A,,/G,,/F,,/ | E,,/D,/C,/B,,/ A,,/G,,/F,,/E,,/ | %324
 D,,/C,/B,,/A,,/ G,,/F,,/E,,/D,,/ | C,, C,2 =B,, | C,2 z/ C,/D,/E,/ | F, z z2 | %328
 B,,2 z/ B,,/C,/D,/ | E, z z2 | z A,,B,,C, | F,,C, F,2- | F,/E,/D,/F,/ E,/D,/C,/B,,/ | %333
 A,,G,, MA,,2 | G,,4 :: G,2 z F, | E,2 D,2 | C, z D, z | E,2 z =E, | F,2 B,C | %340
[I:staff -1] F[I:staff +1] z[I:staff -1] G[I:staff +1] z | x4 | x4 | x4 | x4 | x4 | x4 | x4 | x4 | %349
 x4 | x4 | x4 | x4 | x4 | x4 | x4 | x4 | x4 | x4 | x4 | x4 | x4 | x4 | x4 | x4 | x4 | x4 | x4 | %368
 x4 | x4 | x4 | x4 | x4 | x4 | x4 | x4 | x4 | x4 | x4 | x4 | x4 | x4 | x4 :| %383
V:5
 x8 | x8 | x8 | x8 | x6 z2 | z2 =B,,>B,, x4 | x8 || x8 | x8 | x8 | x8 | x8 | x8 | x8 | x8 | x8 | %16
 x8 | x8 | x8 | x8 | x8 | x8 | x8 | x8 | x8 | x8 | x8 | x8 | x8 ||[M:3/4] x6 | x6 | x6 | %32
[K:treble] x6 | x6 | x6 | x6 | x6 | x6 | x6 | x6 | x6 |[K:bass] x6 | x6 | x6 | x6 | x6 | x6 | x6 | %48
 x6 | x6 | x6 | x6 | x6 | x6 | x6 | x6 | x2[K:treble] x4 | x6 | x6 | x2[K:bass] x4 | x6 | x6 | x6 | %63
 x6 | x6 | x6 | x6 | x6 | x6 | x6 | x6 | x6 | x6 | x6 | x6 | x6 | x6 | x6 | x6 | x2[K:treble] x4 | %80
 x6 | x2[K:bass] x4 | x6 | x6 | x6 | x6 | x6 | x6 | x6 | x6 | x6 |][M:2/2] x3/2 | x2[K:treble] x6 | %93
 x4[K:bass] x4 | x8 | x8 | x8 | x8 | x8 | x8 | x8 | x8 | x8 | x8 | x8 | x8 | x8 | x13/2 :: x3/2 | %109
 x8 | x8 | x8 | x8 | x8 | x8 | x8 | x8 | x8 | x8 | x8 | x8 | x8 | x8 | x8 | x7 :|[M:3/2] x | x12 | %127
 x12 | x12 | x12 | x12 | x12 | x12 | x12 | x12 | x12 | x12 | x2 D,4- x5 :: x | x12 | x12 | x12 | %142
 x12 | x12 | x12 | x12 | x12 | x12 | x12 | x12 | x2 G,,4- x5 |][M:3/4] x6 | x6 | x6 | x6 | x6 | %156
 x6 | x6 | x6 :: x6 | x6 | x6 | x6 | x6 | x6 | x6 | x6 | x6 | x6 | x6 | x6 | x6 | x6 | x6 | x6 :| %175
[M:3/8] x3 |[K:treble] x3 | x3 | x3 | x3 | x2[K:bass] x | x3 | x3 | x3 |[K:treble] x3 | x3 | x3 | %187
 x3 | x2[K:bass] x | x3 | x3 | x3 | x3 | x3 | x3 | x3 | x3 | x3 | x3 | x3 | x3 | x3 | x3 | x3 | %204
 x3 | x3 | x2[K:treble] x | x3 | x3 | x3 | x3 | x3 | x2[K:bass] x | x3 | x3 | x3 |[K:treble] x3 | %217
 x3 | x3 | x3 | x2[K:bass] x | x3 | x3 | x3 | x3 | x3 | x3 | x3 | x3 | x3 | x3 | x3 | x3 | x3 | %234
 x3 | x3 | x3 | x3 | x3 | x3 | x3 | x3 | x3 | x3 | x3 | x3 | x3 | x3 | x3 | x3 | x3 | x3 | x3 | %253
 x3 | x3 | x3 | x3 | x3 | x3 | x3 | x3 | x3 | x3 | x3 | x3 | x3 | x3 | x3 | x3 | x3 | x3 | x3 | %272
 x/[K:treble] x5/2 | x3 | x3 | x3 | x3 | x3 | x3 |[K:bass] x3 | x3 | x3 | x3 | x3 | x3 | x3 | x3 :| %287
[M:2/4] x4 | x4 | x4 | x4 | x4 | x4 | x4 | x4 | x4 | x4 | x4 | x4 | x4 | x4 | x4 | x4 | x4 | x4 | %305
 x4 | x4 | x4 | x4 | x4 | x4 | x4 | x4 | x4 | x4 | x4 | x4 | x4 | x4 | x4 | x4 | x4 | x4 | x4 | %324
 x4 | x4 | x4 | x4 | x4 | x4 | x4 | x4 | x4 | x4 | x4 :: x4 | x4 | x4 | x4 | x4 | x4 | x4 | x4 | %343
 x4 | x4 | x4 | x4 | x4 | x4 | x4 | x4 | x4 | x4 | x4 | x4 | x4 | x4 | x4 | x4 | x4 | x4 | x4 | %362
 x4 | x4 | x4 | x4 | x4 | x4 | x4 | x4 | x4 | x4 | x4 | x4 | x4 | x4 | x4 | x4 | x4 | x4 | x4 | %381
 x4 | x4 :| %383
V:6
 x8 | x8 | x8 | x8 | x8 | x8 | x2 e/d/4c/<d/=A/4 x4 || x8 | x8 | x8 | x8 | x8 | x8 | x8 | x8 | x8 | %16
 x8 | x8 | x8 | x8 | x8 | x8 | x8 | x8 | x8 | x8 | x8 | x8 | x8 ||[M:3/4] x6 | x6 | x6 | x6 | x6 | %34
 x6 | x6 | x6 | x6 | x6 | x6 | x6 | x6 | x6 | x6 | x6 | x6 | x6 | x6 | x6 | x6 | x6 | x6 | x6 | %53
 x6 | x6 | x6 | x6 | x6 | x6 | x6 | x6 | x6 | x6 | x6 | x6 | x6 | x6 | x6 | x6 | x6 | x6 | x6 | %72
 x6 | x6 | x6 | x6 | x6 | x6 | x6 | x6 | x6 | x6 | x6 | x6 | x6 | x6 | x6 | x6 | x6 | x6 | x6 |] %91
[M:2/2] x3/2 | x8 | x8 | x8 | x8 | x8 | x8 | x8 | x8 | x8 | x8 | x8 | x8 | x8 | x8 | x8 | %107
 x9/2 D2 :: x3/2 | x8 | x8 | x8 | x8 | x8 | x8 | x8 | x8 | x8 | x8 | x8 | x8 | x8 | x8 | x8 | x7 :| %125
[M:3/2] x | x8 z2 d2 | x12 | x12 | x12 | x12 | x12 | x12 | x12 | x12 | x12 | x12 | x11 :: x | %139
 =B4 x8 | x12 | x12 | x12 | x12 | x12 | x12 | x12 | x12 | G4 x8 | x12 | x11 |][M:3/4] x6 | x6 | %153
 x6 | x6 | x6 | x6 | x6 | x6 :: x6 | x6 | x6 | x6 | x6 | x6 | x6 | x6 | x6 | x6 | x6 | x6 | x6 | %172
 x6 | x6 | x6 :|[M:3/8] x3 | x3 | x3 | x3 | x3 | x3 | x3 | x3 | x3 | x3 | x3 | x3 | x3 | x3 | x3 | %190
 x3 | x3 | x3 | x3 | x3 | x3 | x3 | x3 | x3 | x3 | x3 | x3 | x3 | x3 | x3 | x3 | x3 | x3 | x3 | %209
 x3 | x3 | x3 | x3 | x3 | x3 | x3 | x3 | x3 | x3 | x3 | x3 | x3 | x3 | x3 | x3 | x3 | x3 | x3 | %228
 x3 | x3 | x3 | x3 | x3 | x3 | x3 | x3 | x3 | x3 | x3 | x3 | x3 | x3 | x3 | x3 | x3 | x3 | x3 | %247
 x3 | x3 | x3 | x3 | x3 | x3 | x3 | x3 | x3 | x3 | x3 | x3 | x3 | x3 | x3 | x3 | x3 | x3 | x3 | %266
 x3 | x3 | x3 | x3 | x3 | x3 | x3 | x3 | x3 | x3 | x3 | x3 | x3 | x3 | x3 | x3 | x3 | x3 | x3 | %285
 x3 | x3 :|[M:2/4] x4 | x4 | x4 | x4 | x4 | x4 | x4 | x4 | x4 | x4 | x4 | x4 | x4 | x4 | x4 | x4 | %303
 x4 | x4 | x4 | x4 | x4 | x4 | x4 | x4 | x4 | x4 | x4 | x4 | x4 | x4 | x4 | x4 | x4 | x4 | x4 | %322
 x4 | x4 | x4 | x4 | x4 | x4 | x4 | x4 | x4 | x4 | x4 | x4 | x4 :: x4 | x4 | x4 | x4 | x4 | x4 | %341
 x4 | x4 | x4 | x4 | x4 | x4 | x4 | x4 | x4 | x4 | x4 | x4 | x4 | x4 | x4 | x4 | x4 | x4 | x4 | %360
 x4 | x4 | x4 | x4 | x4 | x4 | x4 | x4 | x4 | x4 | x4 | x4 | x4 | x4 | x4 | x4 | x4 | x4 | x4 | %379
 x4 | x3 A | d c2 =B | x4 :| %383

